icons/svg/functional-icons/bus_station_small.svg

<?xml version="1.0" encoding="UTF-8" standalone="no"?>
<svg
   xmlns:dc="http://purl.org/dc/elements/1.1/"
   xmlns:cc="http://creativecommons.org/ns#"
   xmlns:rdf="http://www.w3.org/1999/02/22-rdf-syntax-ns#"
   xmlns:svg="http://www.w3.org/2000/svg"
   xmlns="http://www.w3.org/2000/svg"
   xmlns:sodipodi="http://sodipodi.sourceforge.net/DTD/sodipodi-0.dtd"
   xmlns:inkscape="http://www.inkscape.org/namespaces/inkscape"
   width="580"
   height="580"
   id="svg2"
   version="1.1"
   inkscape:version="0.91 r13725"
   sodipodi:docname="bus_station_small.svg">
  <defs
     id="defs13" />
  <sodipodi:namedview
     pagecolor="#ffffff"
     bordercolor="#666666"
     borderopacity="1"
     objecttolerance="10"
     gridtolerance="10000"
     guidetolerance="10"
     inkscape:pageopacity="0"
     inkscape:pageshadow="2"
     inkscape:window-width="1920"
     inkscape:window-height="1006"
     id="namedview11"
     showgrid="true"
     inkscape:snap-page="true"
     inkscape:snap-bbox="true"
     inkscape:zoom="0.81379307"
     inkscape:cx="325.17957"
     inkscape:cy="368.63781"
     inkscape:window-x="1920"
     inkscape:window-y="0"
     inkscape:window-maximized="1"
     inkscape:current-layer="svg2"
     inkscape:bbox-nodes="true"
     inkscape:bbox-paths="true"
     inkscape:snap-bbox-edge-midpoints="true"
     inkscape:snap-bbox-midpoints="true"
     inkscape:snap-object-midpoints="true"
     inkscape:snap-center="true"
     inkscape:object-paths="false"
     inkscape:object-nodes="true"
     inkscape:snap-smooth-nodes="false"
     inkscape:snap-midpoints="false"
     inkscape:snap-intersection-paths="false"
     inkscape:snap-nodes="true"
     inkscape:snap-global="false">
    <inkscape:grid
       type="xygrid"
       id="grid4152"
       spacingx="36.25"
       spacingy="36.25" />
  </sodipodi:namedview>
  <metadata
     id="metadata2975">image/svg+xmlen<rdf:RDF>
  <cc:Work
     rdf:about="">
    <dc:format>image/svg+xml</dc:format>
    <dc:type
       rdf:resource="http://purl.org/dc/dcmitype/StillImage" />
    <dc:title />
  </cc:Work>
</rdf:RDF>
</metadata>
  <path
     style="color:#000000;clip-rule:nonzero;display:inline;overflow:visible;visibility:visible;opacity:0.75400002;isolation:auto;mix-blend-mode:normal;color-interpolation:sRGB;color-interpolation-filters:linearRGB;solid-color:#000000;solid-opacity:1;fill:#fefefe;fill-opacity:1;fill-rule:nonzero;stroke:none;stroke-width:5;stroke-linecap:butt;stroke-linejoin:miter;stroke-miterlimit:4;stroke-dasharray:none;stroke-dashoffset:0;stroke-opacity:1;color-rendering:auto;image-rendering:auto;shape-rendering:auto;text-rendering:auto;enable-background:accumulate"
     d="M 290,8.4886729 C 131.79698,8.4886729 2.4886729,137.79698 2.4886729,296 2.4886729,454.20302 131.79698,583.51133 290,583.51133 448.20302,583.51133 577.51133,454.20302 577.51133,296 577.51133,137.79698 448.20302,8.4886729 290,8.4886729 Z"
     id="path4171"
     inkscape:connector-curvature="0"
     sodipodi:nodetypes="sssss" />
  <g
     id="g1327-1"
     transform="matrix(1.14,0,0,1.14,451.90183,-189.95192)" />
  <path
     inkscape:connector-curvature="0"
     style="color:#000000;clip-rule:nonzero;display:inline;overflow:visible;visibility:visible;opacity:1;isolation:auto;mix-blend-mode:normal;color-interpolation:sRGB;color-interpolation-filters:linearRGB;solid-color:#000000;solid-opacity:1;fill:#0092da;fill-opacity:1;fill-rule:nonzero;stroke:none;stroke-width:5;stroke-linecap:butt;stroke-linejoin:miter;stroke-miterlimit:4;stroke-dasharray:none;stroke-dashoffset:0;stroke-opacity:1;color-rendering:auto;image-rendering:auto;shape-rendering:auto;text-rendering:auto;enable-background:accumulate"
     d="m 288.58959,112.36218 c 0.45905,0 0.93595,0.0175 1.3998,0.0212 0.46705,-0.003 0.93761,-0.0212 1.3998,-0.0212 z m 1.3998,0.0212 c -32.59401,0.25824 -76.75431,9.43572 -95.18632,17.11572 -18.69615,7.79007 -31.16398,15.58387 -35.0586,35.0586 l -14.01921,107.97541 0,148.76046 24.15715,0 0,23.32999 c 0,28.4457 41.6122,28.44569 41.6122,0 l 0,-23.32999 76.86168,0 0.2333,0 79.89459,0 0,23.32999 c 0,28.4457 41.63341,28.44569 41.63341,0 l 0,-23.32999 24.15714,0 0,-148.76046 -14.0192,-107.97541 c -3.89462,-19.47473 -16.36245,-27.26853 -35.0586,-35.0586 -18.43381,-7.68075 -62.61261,-16.8592 -95.20754,-17.11572 z m -90.85968,62.48194 89.33262,0 92.38674,0 c 12.34381,0 15.57464,6.26568 17.07331,15.77955 l 10.92268,78.30391 c 1.01753,7.5056 -1.16807,14.95239 -11.53774,14.9524 l -108.71772,0 -105.91811,0 c -10.36968,0 -12.53408,-7.44681 -11.51654,-14.9524 l 10.92268,-78.30391 c 1.49868,-9.51387 4.70829,-15.77955 17.05209,-15.77955 z m -8.42,159.8528 c 11.02718,0 19.95774,8.95177 19.95774,19.97895 0,11.02719 -8.93055,19.95774 -19.95774,19.95774 -11.02718,0 -19.97895,-8.93056 -19.97895,-19.95774 0,-11.02717 8.95177,-19.97895 19.97895,-19.97895 z m 198.58057,0 c 11.02718,0 19.95773,8.95178 19.95774,19.97895 0,11.02718 -8.93056,19.95774 -19.95774,19.95774 -11.02717,0 -19.97895,-8.93055 -19.97894,-19.95774 0,-11.02718 8.95177,-19.97895 19.97894,-19.97895 z"
     id="path2115"
     sodipodi:nodetypes="cccccsccccssccccssccccscscsccscsccsssssssssss" />
  <circle
     style="color:#000000;clip-rule:nonzero;display:inline;overflow:visible;visibility:visible;opacity:0.74900004;isolation:auto;mix-blend-mode:normal;color-interpolation:sRGB;color-interpolation-filters:linearRGB;solid-color:#000000;solid-opacity:1;fill:none;fill-opacity:1;fill-rule:evenodd;stroke:#ff0000;stroke-width:36.47999954;stroke-linecap:round;stroke-linejoin:round;stroke-miterlimit:4;stroke-dasharray:none;stroke-dashoffset:0;stroke-opacity:1;marker:none;color-rendering:auto;image-rendering:auto;shape-rendering:auto;text-rendering:auto;enable-background:accumulate"
     id="path4136"
     cx="290"
     cy="296"
     r="240.20808" />
</svg>

<svg width="580" height="580" viewBox="0 0 580 580" fill="none" xmlns="http://www.w3.org/2000/svg">
<g clip-path="url(#clip0)">
<path opacity="0.754" d="M290 8.48877C131.797 8.48877 2.48828 137.797 2.48828 296C2.48828 454.203 131.797 583.511 290 583.511C448.203 583.511 577.511 454.203 577.511 296C577.511 137.797 448.203 8.48877 290 8.48877Z" fill="#FEFEFE"/>
<path d="M288.59 112.362C289.049 112.362 289.526 112.38 289.99 112.383C290.457 112.38 290.927 112.362 291.39 112.362H288.59ZM289.99 112.383C257.396 112.642 213.235 121.819 194.803 129.499C176.107 137.289 163.639 145.083 159.745 164.558L145.726 272.533V421.294H169.883V444.624C169.883 473.069 211.495 473.069 211.495 444.624V421.294H288.357H288.59H368.485V444.624C368.485 473.069 410.118 473.069 410.118 444.624V421.294H434.275V272.533L420.256 164.558C416.361 145.083 403.893 137.289 385.197 129.499C366.763 121.818 322.585 112.64 289.99 112.383V112.383ZM199.13 174.865H288.463H380.849C393.193 174.865 396.424 181.131 397.923 190.645L408.845 268.949C409.863 276.455 407.677 283.901 397.308 283.901H288.59H182.672C172.302 283.901 170.138 276.455 171.155 268.949L182.078 190.645C183.577 181.131 186.786 174.865 199.13 174.865V174.865ZM190.71 334.718C201.737 334.718 210.668 343.67 210.668 354.697C210.668 365.724 201.737 374.655 190.71 374.655C179.683 374.655 170.731 365.724 170.731 354.697C170.731 343.67 179.683 334.718 190.71 334.718ZM389.291 334.718C400.318 334.718 409.248 343.67 409.248 354.697C409.248 365.724 400.318 374.655 389.291 374.655C378.263 374.655 369.312 365.724 369.312 354.697C369.312 343.67 378.263 334.718 389.291 334.718Z" fill="#0092DA"/>
<path opacity="0.749" d="M290 536.208C422.663 536.208 530.208 428.663 530.208 296C530.208 163.337 422.663 55.792 290 55.792C157.337 55.792 49.792 163.337 49.792 296C49.792 428.663 157.337 536.208 290 536.208Z" stroke="#FF0000" stroke-width="36.48" stroke-linecap="round" stroke-linejoin="round"/>
</g>
<defs>
<clipPath id="clip0">
<path d="M0 0H580V580H0V0Z" fill="white"/>
</clipPath>
</defs>
</svg>
